images/portal/4741.svg

<svg class="highcharts-root" xmlns="http://www.w3.org/2000/svg" viewBox="0 0 485 415" font-family="Arial" font-size="12">
    <defs>
        <clipPath id="a">
            <path fill="none" d="M0 0h275v337H0z"/>
        </clipPath>
    </defs>
    <rect fill="#fbfbfb" class="highcharts-background" width="485" height="415" rx="0" ry="0"/>
    <path fill="none" class="highcharts-plot-background" d="M138 75h337v275H138z"/>
    <g class="highcharts-grid highcharts-xaxis-grid">
        <path fill="none" class="highcharts-grid-line" d="M138 100.5h337m-337 25h337m-337 25h337m-337 25h337m-337 25h337m-337 25h337m-337 25h337m-337 25h337m-337 25h337m-337 25h337m-337 25h337m-337-275h337"/>
    </g>
    <g class="highcharts-grid highcharts-yaxis-grid">
        <path fill="none" stroke="#e6e6e6" class="highcharts-grid-line" d="M137.5 75v275m67-275v275m68-275v275m67-275v275m68-275v275m68-275v275"/>
    </g>
    <path fill="none" class="highcharts-plot-border" d="M138 75h337v275H138z"/>
    <g class="highcharts-axis highcharts-xaxis">
        <path fill="none" class="highcharts-tick" stroke="#FFF" d="M138 100.5h-10m10 25h-10m10 25h-10m10 25h-10m10 25h-10m10 25h-10m10 25h-10m10 25h-10m10 25h-10m10 25h-10m10 25h-10m10-276h-10"/>
        <path fill="none" class="highcharts-axis-line" stroke="#ccd6eb" d="M137.5 75v275"/>
    </g>
    <g class="highcharts-axis highcharts-yaxis">
        <path fill="none" class="highcharts-axis-line" d="M138 350h337"/>
    </g>
    <g class="highcharts-series-group">
        <g class="highcharts-series highcharts-series-0 highcharts-column-series highcharts-color-undefined highcharts-tracker" transform="matrix(0 -1 -1 0 475 350)" clip-path="url(#a)">
            <path fill="#B475AB" class="highcharts-point highcharts-color-0" stroke="#fff" d="M254.5 43.5h15v294h-15z"/>
            <path fill="#B475AB" class="highcharts-point highcharts-color-1" stroke="#fff" d="M229.5 85.5h15v252h-15z"/>
            <path fill="#B475AB" class="highcharts-point highcharts-color-2" stroke="#fff" d="M204.5 86.5h15v251h-15z"/>
            <path fill="#73BA7C" class="highcharts-point highcharts-color-3" stroke="#fff" d="M179.5 88.5h15v249h-15z"/>
            <path fill="#A8C4CB" class="highcharts-point highcharts-color-4" stroke="#fff" d="M154.5 92.5h15v245h-15z"/>
            <path fill="#B475AB" class="highcharts-point highcharts-color-5" stroke="#fff" d="M129.5 95.5h15v242h-15z"/>
            <path fill="#73BA7C" class="highcharts-point highcharts-color-6" stroke="#fff" d="M104.5 98.5h15v239h-15z"/>
            <path fill="#B475AB" class="highcharts-point highcharts-color-7" stroke="#fff" d="M79.5 104.5h15v233h-15z"/>
            <path fill="#B475AB" class="highcharts-point highcharts-color-8" stroke="#fff" d="M54.5 138.5h15v199h-15z"/>
            <path fill="#B475AB" class="highcharts-point highcharts-color-9" stroke="#fff" d="M29.5 143.5h15v194h-15z"/>
            <path fill="#B475AB" class="highcharts-point highcharts-color-10" stroke="#fff" d="M4.5 171.5h15v166h-15z"/>
        </g>
        <g class="highcharts-series highcharts-series-1 highcharts-errorbar-series highcharts-color-undefined highcharts-tracker" transform="matrix(0 -1 -1 0 475 350)" clip-path="url(#a)">
            <g class="highcharts-point">
                <path fill="none" class="highcharts-boxplot-stem" stroke="#000" d="M262.5 48V38m0 10"/>
                <path fill="none" class="highcharts-boxplot-whisker" stroke="#000" d="M258.5 38.5h8m-8 10h8"/>
            </g>
            <g class="highcharts-point">
                <path fill="none" class="highcharts-boxplot-stem" stroke="#000" d="M237.5 102V67m0 35"/>
                <path fill="none" class="highcharts-boxplot-whisker" stroke="#000" d="M233.5 67.5h8m-8 35h8"/>
            </g>
            <g class="highcharts-point">
                <path fill="none" class="highcharts-boxplot-stem" stroke="#000" d="M212.5 100V70m0 30"/>
                <path fill="none" class="highcharts-boxplot-whisker" stroke="#000" d="M208.5 70.5h8m-8 30h8"/>
            </g>
            <g class="highcharts-point">
                <path fill="none" class="highcharts-boxplot-stem" stroke="#000" d="M187.5 90v-5m0 5"/>
                <path fill="none" class="highcharts-boxplot-whisker" stroke="#000" d="M183.5 85.5h8m-8 5h8"/>
            </g>
            <g class="highcharts-point">
                <path fill="none" class="highcharts-boxplot-stem" stroke="#000" d="M162.5 94v-5m0 5"/>
                <path fill="none" class="highcharts-boxplot-whisker" stroke="#000" d="M158.5 89.5h8m-8 5h8"/>
            </g>
            <g class="highcharts-point">
                <path fill="none" class="highcharts-boxplot-stem" stroke="#000" d="M137.5 101V87m0 14"/>
                <path fill="none" class="highcharts-boxplot-whisker" stroke="#000" d="M133.5 87.5h8m-8 14h8"/>
            </g>
            <g class="highcharts-point">
                <path fill="none" class="highcharts-boxplot-stem" stroke="#000" d="M112.5 101v-7m0 7"/>
                <path fill="none" class="highcharts-boxplot-whisker" stroke="#000" d="M108.5 94.5h8m-8 7h8"/>
            </g>
            <g class="highcharts-point">
                <path fill="none" class="highcharts-boxplot-stem" stroke="#000" d="M87.5 114V93m0 21"/>
                <path fill="none" class="highcharts-boxplot-whisker" stroke="#000" d="M83.5 93.5h8m-8 21h8"/>
            </g>
            <g class="highcharts-point">
                <path fill="none" class="highcharts-boxplot-stem" stroke="#000" d="M62.5 160v-46m0 46"/>
                <path fill="none" class="highcharts-boxplot-whisker" stroke="#000" d="M58.5 114.5h8m-8 46h8"/>
            </g>
            <g class="highcharts-point">
                <path fill="none" class="highcharts-boxplot-stem" stroke="#000" d="M37.5 153v-21m0 21"/>
                <path fill="none" class="highcharts-boxplot-whisker" stroke="#000" d="M33.5 132.5h8m-8 21h8"/>
            </g>
            <g class="highcharts-point">
                <path fill="none" class="highcharts-boxplot-stem" stroke="#000" d="M12.5 182v-24m0 24"/>
                <path fill="none" class="highcharts-boxplot-whisker" stroke="#000" d="M8.5 158.5h8m-8 24h8"/>
            </g>
        </g>
    </g>
    <text x="10" class="highcharts-title" y="21" color="#000" font-size="14" font-weight="700">
        <tspan>I.03.0.0001 Erwerbstätigenquote nach Staatsangehörigkeit</tspan><tspan dy="17" x="10">2010 bis 2014</tspan><title>I.03.0.0001 Erwerbstätigenquote nach Staatsangehörigkeit 2010 bis 2014</title>
    </text>
    <g class="highcharts-axis-labels highcharts-xaxis-labels" text-anchor="end" color="#000" cursor="default" font-size="11">
        <text x="123" y="92">
            <tspan>Deutschland</tspan>
        </text>
        <text x="123" y="117">
            <tspan>EU-Oststaaten</tspan>
        </text>
        <text x="123" y="142">
            <tspan>Spanien</tspan>
        </text>
        <text x="123" y="167">
            <tspan>Total Schweiz</tspan>
        </text>
        <text x="123" y="192">
            <tspan>Total</tspan>
        </text>
        <text x="123" y="217">
            <tspan>Restliche Welt</tspan>
        </text>
        <text x="123" y="242">
            <tspan>Total Ausland</tspan>
        </text>
        <text x="123" y="267">
            <tspan>Italien</tspan>
        </text>
        <text x="123" y="292">
            <tspan>Mittel- und Südamerika</tspan>
        </text>
        <text x="123" y="317">
            <tspan>Ehem. Jugoslawien</tspan>
        </text>
        <text x="123" y="342">
            <tspan>Türkei</tspan>
        </text>
    </g>
    <g class="highcharts-axis-labels highcharts-yaxis-labels" text-anchor="middle" color="#000" cursor="default" font-size="11">
        <text x="138" y="369">
            0%
        </text>
        <text x="205.4" y="369">
            20%
        </text>
        <text x="272.8" y="369">
            40%
        </text>
        <text x="340.2" y="369">
            60%
        </text>
        <text x="407.6" y="369">
            80%
        </text>
        <text x="460.953" y="369">
            100%
        </text>
    </g>
    <text x="10" class="highcharts-credits" y="400" cursor="default" color="#000" font-size="10">
        <tspan>Quelle: Bundesamt für Statistik BFS, Strukturerhebung (SE)</tspan>
    </text>
</svg>

<?xml version="1.0" standalone="no"?><!DOCTYPE svg PUBLIC "-//W3C//DTD SVG 1.1//EN" "http://www.w3.org/Graphics/SVG/1.1/DTD/svg11.dtd"><svg xmlns:xlink="http://www.w3.org/1999/xlink" version="1.1" class="highcharts-root" style="font-family:Arial;font-size:12px;" xmlns="http://www.w3.org/2000/svg" width="485" height="415"><desc>Created with Highcharts 5.0.7</desc><defs><clipPath id="highcharts-1zy2ne5-1"><rect x="0" y="0" width="275" height="337" fill="none"></rect></clipPath></defs><rect fill="#fbfbfb" class="highcharts-background" x="0" y="0" width="485" height="415" rx="0" ry="0"></rect><rect fill="none" class="highcharts-plot-background" x="138" y="75" width="337" height="275"></rect><g class="highcharts-grid highcharts-xaxis-grid "><path fill="none" class="highcharts-grid-line" d="M 138 100.5 L 475 100.5" opacity="1"></path><path fill="none" class="highcharts-grid-line" d="M 138 125.5 L 475 125.5" opacity="1"></path><path fill="none" class="highcharts-grid-line" d="M 138 150.5 L 475 150.5" opacity="1"></path><path fill="none" class="highcharts-grid-line" d="M 138 175.5 L 475 175.5" opacity="1"></path><path fill="none" class="highcharts-grid-line" d="M 138 200.5 L 475 200.5" opacity="1"></path><path fill="none" class="highcharts-grid-line" d="M 138 225.5 L 475 225.5" opacity="1"></path><path fill="none" class="highcharts-grid-line" d="M 138 250.5 L 475 250.5" opacity="1"></path><path fill="none" class="highcharts-grid-line" d="M 138 275.5 L 475 275.5" opacity="1"></path><path fill="none" class="highcharts-grid-line" d="M 138 300.5 L 475 300.5" opacity="1"></path><path fill="none" class="highcharts-grid-line" d="M 138 325.5 L 475 325.5" opacity="1"></path><path fill="none" class="highcharts-grid-line" d="M 138 350.5 L 475 350.5" opacity="1"></path><path fill="none" class="highcharts-grid-line" d="M 138 75.5 L 475 75.5" opacity="1"></path></g><g class="highcharts-grid highcharts-yaxis-grid "><path fill="none" stroke="#e6e6e6" stroke-width="1" class="highcharts-grid-line" d="M 137.5 75 L 137.5 350" opacity="1"></path><path fill="none" stroke="#e6e6e6" stroke-width="1" class="highcharts-grid-line" d="M 204.5 75 L 204.5 350" opacity="1"></path><path fill="none" stroke="#e6e6e6" stroke-width="1" class="highcharts-grid-line" d="M 272.5 75 L 272.5 350" opacity="1"></path><path fill="none" stroke="#e6e6e6" stroke-width="1" class="highcharts-grid-line" d="M 339.5 75 L 339.5 350" opacity="1"></path><path fill="none" stroke="#e6e6e6" stroke-width="1" class="highcharts-grid-line" d="M 407.5 75 L 407.5 350" opacity="1"></path><path fill="none" stroke="#e6e6e6" stroke-width="1" class="highcharts-grid-line" d="M 475.5 75 L 475.5 350" opacity="1"></path></g><rect fill="none" class="highcharts-plot-border" x="138" y="75" width="337" height="275"></rect><g class="highcharts-axis highcharts-xaxis "><path fill="none" class="highcharts-tick" stroke="#FFFFFF" stroke-width="1" d="M 138 100.5 L 128 100.5" opacity="1"></path><path fill="none" class="highcharts-tick" stroke="#FFFFFF" stroke-width="1" d="M 138 125.5 L 128 125.5" opacity="1"></path><path fill="none" class="highcharts-tick" stroke="#FFFFFF" stroke-width="1" d="M 138 150.5 L 128 150.5" opacity="1"></path><path fill="none" class="highcharts-tick" stroke="#FFFFFF" stroke-width="1" d="M 138 175.5 L 128 175.5" opacity="1"></path><path fill="none" class="highcharts-tick" stroke="#FFFFFF" stroke-width="1" d="M 138 200.5 L 128 200.5" opacity="1"></path><path fill="none" class="highcharts-tick" stroke="#FFFFFF" stroke-width="1" d="M 138 225.5 L 128 225.5" opacity="1"></path><path fill="none" class="highcharts-tick" stroke="#FFFFFF" stroke-width="1" d="M 138 250.5 L 128 250.5" opacity="1"></path><path fill="none" class="highcharts-tick" stroke="#FFFFFF" stroke-width="1" d="M 138 275.5 L 128 275.5" opacity="1"></path><path fill="none" class="highcharts-tick" stroke="#FFFFFF" stroke-width="1" d="M 138 300.5 L 128 300.5" opacity="1"></path><path fill="none" class="highcharts-tick" stroke="#FFFFFF" stroke-width="1" d="M 138 325.5 L 128 325.5" opacity="1"></path><path fill="none" class="highcharts-tick" stroke="#FFFFFF" stroke-width="1" d="M 138 350.5 L 128 350.5" opacity="1"></path><path fill="none" class="highcharts-tick" stroke="#FFFFFF" stroke-width="1" d="M 138 74.5 L 128 74.5" opacity="1"></path><path fill="none" class="highcharts-axis-line" stroke="#ccd6eb" stroke-width="1" d="M 137.5 75 L 137.5 350"></path></g><g class="highcharts-axis highcharts-yaxis "><path fill="none" class="highcharts-axis-line" d="M 138 350 L 475 350"></path></g><g class="highcharts-series-group"><g class="highcharts-series highcharts-series-0 highcharts-column-series highcharts-color-undefined highcharts-tracker" transform="translate(475,350) rotate(90) scale(-1,1) scale(1 1)" clip-path="url(#highcharts-1zy2ne5-1)"><rect x="254.5" y="43.5" width="15" height="294" fill="#B475AB" class="highcharts-point highcharts-color-0" stroke="#ffffff" stroke-width="1"></rect><rect x="229.5" y="85.5" width="15" height="252" fill="#B475AB" class="highcharts-point highcharts-color-1" stroke="#ffffff" stroke-width="1"></rect><rect x="204.5" y="86.5" width="15" height="251" fill="#B475AB" class="highcharts-point highcharts-color-2" stroke="#ffffff" stroke-width="1"></rect><rect x="179.5" y="88.5" width="15" height="249" fill="#73BA7C" class="highcharts-point highcharts-color-3" stroke="#ffffff" stroke-width="1"></rect><rect x="154.5" y="92.5" width="15" height="245" fill="#A8C4CB" class="highcharts-point highcharts-color-4" stroke="#ffffff" stroke-width="1"></rect><rect x="129.5" y="95.5" width="15" height="242" fill="#B475AB" class="highcharts-point highcharts-color-5" stroke="#ffffff" stroke-width="1"></rect><rect x="104.5" y="98.5" width="15" height="239" fill="#73BA7C" class="highcharts-point highcharts-color-6" stroke="#ffffff" stroke-width="1"></rect><rect x="79.5" y="104.5" width="15" height="233" fill="#B475AB" class="highcharts-point highcharts-color-7" stroke="#ffffff" stroke-width="1"></rect><rect x="54.5" y="138.5" width="15" height="199" fill="#B475AB" class="highcharts-point highcharts-color-8" stroke="#ffffff" stroke-width="1"></rect><rect x="29.5" y="143.5" width="15" height="194" fill="#B475AB" class="highcharts-point highcharts-color-9" stroke="#ffffff" stroke-width="1"></rect><rect x="4.5" y="171.5" width="15" height="166" fill="#B475AB" class="highcharts-point highcharts-color-10" stroke="#ffffff" stroke-width="1"></rect></g><g class="highcharts-markers highcharts-series-0 highcharts-column-series highcharts-color-undefined " transform="translate(475,350) rotate(90) scale(-1,1) scale(1 1)" clip-path="none"></g><g class="highcharts-series highcharts-series-1 highcharts-errorbar-series highcharts-color-undefined highcharts-tracker" transform="translate(475,350) rotate(90) scale(-1,1) scale(1 1)" clip-path="url(#highcharts-1zy2ne5-1)"><g class="highcharts-point"><path fill="none" class="highcharts-boxplot-stem" stroke="#000000" stroke-width="1" d="M 262.5 48 L 262.5 38 M 262.5 48 L 262.5 48"></path><path fill="none" class="highcharts-boxplot-whisker" stroke="#000000" stroke-width="1" d="M 258.5 38.5 L 266.5 38.5 M 258.5 48.5 L 266.5 48.5"></path><path fill="none" class="highcharts-boxplot-median" stroke="#000000" stroke-width="2" d="M 0 0"></path></g><g class="highcharts-point"><path fill="none" class="highcharts-boxplot-stem" stroke="#000000" stroke-width="1" d="M 237.5 102 L 237.5 67 M 237.5 102 L 237.5 102"></path><path fill="none" class="highcharts-boxplot-whisker" stroke="#000000" stroke-width="1" d="M 233.5 67.5 L 241.5 67.5 M 233.5 102.5 L 241.5 102.5"></path><path fill="none" class="highcharts-boxplot-median" stroke="#000000" stroke-width="2" d="M 0 0"></path></g><g class="highcharts-point"><path fill="none" class="highcharts-boxplot-stem" stroke="#000000" stroke-width="1" d="M 212.5 100 L 212.5 70 M 212.5 100 L 212.5 100"></path><path fill="none" class="highcharts-boxplot-whisker" stroke="#000000" stroke-width="1" d="M 208.5 70.5 L 216.5 70.5 M 208.5 100.5 L 216.5 100.5"></path><path fill="none" class="highcharts-boxplot-median" stroke="#000000" stroke-width="2" d="M 0 0"></path></g><g class="highcharts-point"><path fill="none" class="highcharts-boxplot-stem" stroke="#000000" stroke-width="1" d="M 187.5 90 L 187.5 85 M 187.5 90 L 187.5 90"></path><path fill="none" class="highcharts-boxplot-whisker" stroke="#000000" stroke-width="1" d="M 183.5 85.5 L 191.5 85.5 M 183.5 90.5 L 191.5 90.5"></path><path fill="none" class="highcharts-boxplot-median" stroke="#000000" stroke-width="2" d="M 0 0"></path></g><g class="highcharts-point"><path fill="none" class="highcharts-boxplot-stem" stroke="#000000" stroke-width="1" d="M 162.5 94 L 162.5 89 M 162.5 94 L 162.5 94"></path><path fill="none" class="highcharts-boxplot-whisker" stroke="#000000" stroke-width="1" d="M 158.5 89.5 L 166.5 89.5 M 158.5 94.5 L 166.5 94.5"></path><path fill="none" class="highcharts-boxplot-median" stroke="#000000" stroke-width="2" d="M 0 0"></path></g><g class="highcharts-point"><path fill="none" class="highcharts-boxplot-stem" stroke="#000000" stroke-width="1" d="M 137.5 101 L 137.5 87 M 137.5 101 L 137.5 101"></path><path fill="none" class="highcharts-boxplot-whisker" stroke="#000000" stroke-width="1" d="M 133.5 87.5 L 141.5 87.5 M 133.5 101.5 L 141.5 101.5"></path><path fill="none" class="highcharts-boxplot-median" stroke="#000000" stroke-width="2" d="M 0 0"></path></g><g class="highcharts-point"><path fill="none" class="highcharts-boxplot-stem" stroke="#000000" stroke-width="1" d="M 112.5 101 L 112.5 94 M 112.5 101 L 112.5 101"></path><path fill="none" class="highcharts-boxplot-whisker" stroke="#000000" stroke-width="1" d="M 108.5 94.5 L 116.5 94.5 M 108.5 101.5 L 116.5 101.5"></path><path fill="none" class="highcharts-boxplot-median" stroke="#000000" stroke-width="2" d="M 0 0"></path></g><g class="highcharts-point"><path fill="none" class="highcharts-boxplot-stem" stroke="#000000" stroke-width="1" d="M 87.5 114 L 87.5 93 M 87.5 114 L 87.5 114"></path><path fill="none" class="highcharts-boxplot-whisker" stroke="#000000" stroke-width="1" d="M 83.5 93.5 L 91.5 93.5 M 83.5 114.5 L 91.5 114.5"></path><path fill="none" class="highcharts-boxplot-median" stroke="#000000" stroke-width="2" d="M 0 0"></path></g><g class="highcharts-point"><path fill="none" class="highcharts-boxplot-stem" stroke="#000000" stroke-width="1" d="M 62.5 160 L 62.5 114 M 62.5 160 L 62.5 160"></path><path fill="none" class="highcharts-boxplot-whisker" stroke="#000000" stroke-width="1" d="M 58.5 114.5 L 66.5 114.5 M 58.5 160.5 L 66.5 160.5"></path><path fill="none" class="highcharts-boxplot-median" stroke="#000000" stroke-width="2" d="M 0 0"></path></g><g class="highcharts-point"><path fill="none" class="highcharts-boxplot-stem" stroke="#000000" stroke-width="1" d="M 37.5 153 L 37.5 132 M 37.5 153 L 37.5 153"></path><path fill="none" class="highcharts-boxplot-whisker" stroke="#000000" stroke-width="1" d="M 33.5 132.5 L 41.5 132.5 M 33.5 153.5 L 41.5 153.5"></path><path fill="none" class="highcharts-boxplot-median" stroke="#000000" stroke-width="2" d="M 0 0"></path></g><g class="highcharts-point"><path fill="none" class="highcharts-boxplot-stem" stroke="#000000" stroke-width="1" d="M 12.5 182 L 12.5 158 M 12.5 182 L 12.5 182"></path><path fill="none" class="highcharts-boxplot-whisker" stroke="#000000" stroke-width="1" d="M 8.5 158.5 L 16.5 158.5 M 8.5 182.5 L 16.5 182.5"></path><path fill="none" class="highcharts-boxplot-median" stroke="#000000" stroke-width="2" d="M 0 0"></path></g></g><g class="highcharts-markers highcharts-series-1 highcharts-errorbar-series highcharts-color-undefined " transform="translate(475,350) rotate(90) scale(-1,1) scale(1 1)" clip-path="none"></g></g><text x="10" text-anchor="start" class="highcharts-title" style="color:#000000;font-size:14px;font-weight:bold;fill:#000000;" y="21"><tspan>I.03.0.0001 Erwerbstätigenquote nach Staatsangehörigkeit</tspan><tspan dy="17" x="10">2010 bis 2014</tspan><title>I.03.0.0001 Erwerbstätigenquote nach Staatsangehörigkeit 2010 bis 2014</title></text><g class="highcharts-axis-labels highcharts-xaxis-labels "><text x="123" style="color:#000000;cursor:default;font-size:11px;fill:#000000;" text-anchor="end" transform="translate(0,0)" y="92" opacity="1"><tspan>Deutschland</tspan></text><text x="123" style="color:#000000;cursor:default;font-size:11px;fill:#000000;" text-anchor="end" transform="translate(0,0)" y="117" opacity="1"><tspan>EU-Oststaaten</tspan></text><text x="123" style="color:#000000;cursor:default;font-size:11px;fill:#000000;" text-anchor="end" transform="translate(0,0)" y="142" opacity="1"><tspan>Spanien</tspan></text><text x="123" style="color:#000000;cursor:default;font-size:11px;fill:#000000;" text-anchor="end" transform="translate(0,0)" y="167" opacity="1"><tspan>Total Schweiz</tspan></text><text x="123" style="color:#000000;cursor:default;font-size:11px;fill:#000000;" text-anchor="end" transform="translate(0,0)" y="192" opacity="1"><tspan>Total</tspan></text><text x="123" style="color:#000000;cursor:default;font-size:11px;fill:#000000;" text-anchor="end" transform="translate(0,0)" y="217" opacity="1"><tspan>Restliche Welt</tspan></text><text x="123" style="color:#000000;cursor:default;font-size:11px;fill:#000000;" text-anchor="end" transform="translate(0,0)" y="242" opacity="1"><tspan>Total Ausland</tspan></text><text x="123" style="color:#000000;cursor:default;font-size:11px;fill:#000000;" text-anchor="end" transform="translate(0,0)" y="267" opacity="1"><tspan>Italien</tspan></text><text x="123" style="color:#000000;cursor:default;font-size:11px;fill:#000000;" text-anchor="end" transform="translate(0,0)" y="292" opacity="1"><tspan>Mittel- und Südamerika</tspan></text><text x="123" style="color:#000000;cursor:default;font-size:11px;fill:#000000;" text-anchor="end" transform="translate(0,0)" y="317" opacity="1"><tspan>Ehem. Jugoslawien</tspan></text><text x="123" style="color:#000000;cursor:default;font-size:11px;fill:#000000;" text-anchor="end" transform="translate(0,0)" y="342" opacity="1"><tspan>Türkei</tspan></text></g><g class="highcharts-axis-labels highcharts-yaxis-labels "><text x="138" style="color:#000000;cursor:default;font-size:11px;fill:#000000;" text-anchor="middle" transform="translate(0,0)" y="369" opacity="1">0%</text><text x="205.4" style="color:#000000;cursor:default;font-size:11px;fill:#000000;" text-anchor="middle" transform="translate(0,0)" y="369" opacity="1">20%</text><text x="272.8" style="color:#000000;cursor:default;font-size:11px;fill:#000000;" text-anchor="middle" transform="translate(0,0)" y="369" opacity="1">40%</text><text x="340.2" style="color:#000000;cursor:default;font-size:11px;fill:#000000;" text-anchor="middle" transform="translate(0,0)" y="369" opacity="1">60%</text><text x="407.6" style="color:#000000;cursor:default;font-size:11px;fill:#000000;" text-anchor="middle" transform="translate(0,0)" y="369" opacity="1">80%</text><text x="460.953125" style="color:#000000;cursor:default;font-size:11px;fill:#000000;" text-anchor="middle" transform="translate(0,0)" y="369" opacity="1">100%</text></g><text x="10" class="highcharts-credits" text-anchor="start" style="cursor:default;color:#000000;font-size:10px;fill:#000000;" y="400"><tspan>Quelle: Bundesamt für Statistik BFS, Strukturerhebung (SE)</tspan></text></svg>
